X:1
T:Title
%%score { 1 | 2 }
L:1/8
Q:1/4=104
M:4/4
K:Ab
V:1 treble nm="Grand Piano"
V:2 bass 
V:1
 [CE][CE][CE][CE] [CE][CE][A,C][CE] | [CA]2 [DA]2 [CA]4 | cced cB[EA][Ec] | [EB]2 [=DB]2 B3 d | %4
w: J.~Howard~Entwisle * * * * * * *||||
 cced c2 B2 | ABAF [CE]2 [A,C][CE] | [DF][DF][Fd]B AGFG | [CA]6 z2 | c4 e4 | c4 A3 c | BBBB BdcB | %11
w: |||||||
 [CA]2 [DF]2 [CE]4 | c4 A4 |[M:9/8] [_Ge]3- [Ge] [Fd]2- [Fd] [Fd]2 |[M:4/4] ccdc BBcB | [CA]6 z2 |] %16
w: |||||
V:2
 [A,,A,][A,,A,][A,,A,][A,,A,] [A,,A,][A,,A,][A,,E,][A,,A,] | [A,,E,]2 [D,F,]2 [A,,E,]4 | %2
 [A,E][A,E][A,CE][A,B,E] [A,E][E,G,E][C,A,][A,,A,] | [B,,G,]2 [B,,F,]2 [E,G,E]3 [E,B,E] | %4
 [A,E][A,E][A,CE][A,B,E] [A,E]2 [E,G,D]2 | [F,A,C][F,A,C][D,F,D][D,A,D] [A,,A,]2 [A,,E,][A,,A,] | %6
 [D,A,][D,A,][D,A,][D,F,D] [E,C][E,B,][E,D][E,D] | [A,,E,]6 z2 | [A,E]4 [A,CA]4 | %9
 [A,EA]4 [A,CE]3 [A,E] | [E,G,E][E,G,E][E,G,E][E,G,E] [E,G,E][E,B,E][E,A,E][E,D] | %11
 [A,,E,]2 [A,,A,]2 [A,,A,]4 | [A,E]4 [A,C]4 |[M:9/8] [C,A,]3- [C,A,] [D,A,]2- [D,A,] [D,A,]2 | %14
[M:4/4] [E,A,E][E,A,E][E,B,E][E,A,E] [E,G,D][E,G,D][E,G,E][E,D] | [A,,E,]6 z2 |] %16

